icons/freedesktop.svg

<!--
  - The MIT License (MIT)
  -
  - Copyright (c) 2015-2024 Elior "Mallowigi" Boukhobza
  -
  - Permission is hereby granted, free of charge, to any person obtaining a copy
  - of this software and associated documentation files (the "Software"), to deal
  - in the Software without restriction, including without limitation the rights
  - to use, copy, modify, merge, publish, distribute, sublicense, and/or sell
  - copies of the Software, and to permit persons to whom the Software is
  - furnished to do so, subject to the following conditions:
  -
  - The above copyright notice and this permission notice shall be included in all
  - copies or substantial portions of the Software.
  -
  - THE SOFTWARE IS PROVIDED "AS IS", WITHOUT WARRANTY OF ANY KIND, EXPRESS OR
  - IMPLIED, INCLUDING BUT NOT LIMITED TO THE WARRANTIES OF MERCHANTABILITY,
  - FITNESS FOR A PARTICULAR PURPOSE AND NONINFRINGEMENT. IN NO EVENT SHALL THE
  - AUTHORS OR COPYRIGHT HOLDERS BE LIABLE FOR ANY CLAIM, DAMAGES OR OTHER
  - LIABILITY, WHETHER IN AN ACTION OF CONTRACT, TORT OR OTHERWISE, ARISING FROM,
  - OUT OF OR IN CONNECTION WITH THE SOFTWARE OR THE USE OR OTHER DEALINGS IN THE
  - SOFTWARE.
  -
  -->

<svg  version="1.1" xmlns="http://www.w3.org/2000/svg" viewBox="0 0 512 512" width="16px" height="16px">
  <path fill="#3b80ae" fill-rule="evenodd" clip-rule="evenodd" data-iconColor="FreeDesktop"
        d="M70.8920975,155.6431427l277.0470276-73.723999c40.2966309-11.1278381,77.604187,9.3125076,85.5664673,39.5466461l40.9552917,156.3748474c8.0669556,31.6472168-4.9642944,76.3257141-42.7092285,86.5578003l-273.7633972,73.5400391c-40.9741821,9.4101562-64.6312256-4.5734253-74.4641495-37.2320251L38.298336,243.3358917C25.1056213,192.893158,48.6291084,162.2102814,70.8920975,155.6431427z M3.4751325,231.9210358L55.0122185,423.964447c11.4563026,38.050415,58.4949455,54.2580872,106.2338257,43.294342l268.9286499-68.870697c64.6401978-13.9511414,88.3570862-74.8710327,80.3165894-117.5742493l-41.6152344-174.2407837c-9.276825-35.2256927-57.690094-75.6831207-104.6395874-62.7181091L53.117897,126.4301682C27.1793633,134.0815277-11.8956518,173.1503906,3.4751325,231.9210358z M62.5814476,137.4870453l294.4996948-78.1643295c44.4415894-12.2724609,91.6672668,21.8116455,100.4485474,55.1557007l39.3922729,164.9334717c8.0422974,47.6827087-30.0093079,98.0494995-67.2123108,106.420166l-267.99823,68.3954773c-45.1888275,10.3781128-86.1309052-7.4804077-96.9752502-43.498291L19.9611206,229.2357635C5.4113917,173.6044464,38.0284576,144.7296906,62.5814476,137.4870453z M75.9914093,211.3219147l15.2508163,62.4694977c2.0952988,8.2366638,10.5508118,13.1424255,18.741333,10.8734436l88.4171371-24.493927c7.9611969-2.2054749,12.6914978-10.3784637,10.63797-18.380188l-15.2362061-61.8760376c-2.1002808-8.1838989-10.4850311-13.0720062-18.6414795-10.8675537l-88.4317551,23.9004669C78.7305527,195.1094208,73.9487076,203.2920074,75.9914093,211.3219147z M328.0700684,172.0252838l59.1195374-15.9782562c10.3163147-2.7881927,20.9213867,3.3943176,23.5778503,13.7453308l9.3269348,36.3429718c2.5973511,10.1206207-3.3855896,20.4578552-13.4549255,23.247345l-59.1010742,16.3725891c-10.3594055,2.8698425-21.0539856-3.3349915-23.7041321-13.7527771l-9.345459-36.7373047C311.9051819,185.1089172,317.9533081,174.7595367,328.0700684,172.0252838z M243.7335358,328.6542969l40.9844818-11.0769043c7.1517639-1.9328918,14.5036926,2.3530884,16.3452759,9.5289307l6.4659119,25.1946716c1.8005981,7.0161133-2.3470459,14.182373-9.3276062,16.1161804l-40.9716797,11.3502502c-7.1816559,1.989502-14.5956421-2.3119812-16.4328461-9.5340881l-6.478714-25.4680481C232.5272827,337.7244873,236.720108,330.5498047,243.7335358,328.6542969z M215.2359161,225.4869232l-3.8802032-14.7447968l94.677124-9.3125153l3.1041565,14.744812L215.2359161,225.4869232z M205.5571747,272.3057861l43.5611267,42.9388428l-21.9163971,6.7997131l-43.0301514-44.0882568L205.5571747,272.3057861z M285.5229492,306.2212524l36.0935059-51.0287476l20.5904541,2.4891968l-37.9603882,51.651062L285.5229492,306.2212524z"/>
</svg>

<svg xmlns="http://www.w3.org/2000/svg" viewBox="0 0 512 512"><path fill="#3b80ae" fill-rule="evenodd" d="M70.892 155.643 347.94 81.92c40.297-11.128 77.604 9.313 85.567 39.547L474.46 277.84c8.067 31.647-4.964 76.325-42.71 86.557l-273.763 73.54c-40.974 9.41-64.631-4.573-74.464-37.232l-45.226-157.37c-13.192-50.443 10.331-81.126 32.594-87.693M3.475 231.921l51.537 192.043c11.457 38.05 58.495 54.259 106.234 43.295l268.929-68.87c64.64-13.952 88.357-74.872 80.316-117.575l-41.615-174.24c-9.277-35.227-57.69-75.684-104.64-62.72L53.118 126.43c-25.939 7.652-65.014 46.72-49.643 105.491m59.106-94.434 294.5-78.164c44.442-12.273 91.667 21.811 100.449 55.155l39.392 164.934c8.042 47.683-30.01 98.05-67.212 106.42l-268 68.396c-45.188 10.378-86.13-7.48-96.975-43.499L19.961 229.236c-14.55-55.632 18.067-84.506 42.62-91.749m13.41 73.835 15.251 62.47c2.096 8.236 10.551 13.142 18.742 10.873L198.4 260.17c7.96-2.206 12.691-10.379 10.638-18.38l-15.237-61.876c-2.1-8.184-10.485-13.072-18.641-10.868l-88.432 23.9c-7.998 2.162-12.78 10.345-10.738 18.375m252.08-39.297 59.119-15.978c10.316-2.788 20.921 3.394 23.577 13.745l9.327 36.343c2.598 10.121-3.385 20.458-13.455 23.248l-59.1 16.372c-10.36 2.87-21.055-3.335-23.705-13.753l-9.345-36.737c-2.584-10.156 3.464-20.505 13.581-23.24m-84.337 156.63 40.984-11.078c7.152-1.932 14.504 2.353 16.345 9.53l6.466 25.194c1.8 7.016-2.347 14.182-9.327 16.116l-40.972 11.35c-7.182 1.99-14.596-2.312-16.433-9.534l-6.479-25.468c-1.79-7.04 2.402-14.215 9.416-16.11m-28.498-103.168-3.88-14.745 94.677-9.312 3.104 14.744zm-9.679 46.819 43.561 42.939-21.916 6.8-43.03-44.089zm79.966 33.915 36.093-51.028 20.59 2.489-37.96 51.65z" clip-rule="evenodd" data-iconColor="FreeDesktop"/></svg>
